X:1
T:Oxford New, CM
T:Oxford New, CM
T:J. H. Coombes,1784
T:Public Domain Courtesy of the Cyber Hymnal™
C:J. H. Coombes,1784
Z:Public Domain
Z:Courtesy of the Cyber Hymnal™
%%score ( 1 2 ) ( 3 4 )
L:1/8
Q:1/4=110
M:3/4
K:C
V:1 treble 
V:2 treble 
V:3 bass 
V:4 bass 
V:1
 [Ec]2 G2 (cB) | A2 [FB]2 [Gc]2 | [Ad]2 [Ge]2 [Fd]2 | [Ec]4 [Ge]2 | ([Gd]2 [^Fc]2) [GB]2 | %5
 (A2 B2) [^FA]2 | G4 [Gc]2 | ([FA]2 G2) [Ec]2 | (F2 E2) [CA]2 | [CG]2 [B,F]2 [CE]2 | %10
 ([CE]2 [B,D]2) [CG]2 | [CA]2 [FB]2 [Ec]2 | (Ad [Gc]2) [FB]2 | [Ec]6 |] %14
V:2
 x2 G2 E2 | A2 x4 | x6 | x6 | x6 | G4 x2 | G4 x2 | x2 G2 x2 | C4 x2 | x6 | x6 | x6 | D2 x4 | x6 |] %14
V:3
 [C,G,]2 [E,C]2 [C,C]2 | ([F,C]2 [D,D]2) [E,C]2 | ([F,A,]2 [G,C]2) [G,B,]2 | [C,C]4 C2 | %4
 D4 [G,D]2 | ([C,E]2 [D,D]2) (DC) | [G,B,]4 [E,C]2 | C4 [C,G,]2 | A,2 [G,C]2 [F,C]2 | G,4 [C,G,]2 | %10
 [G,,G,]4 [E,G,]2 | [F,C]2 [D,D]2 [C,E]2 | ([F,F]2 [G,E]2) [G,,D]2 | [C,C]6 |] %14
V:4
 x6 | x6 | x6 | x4 C2 | (B,2 A,2) x2 | x4 D,2 | x6 | (F,2 E,2) x2 | A,2 x4 | E,2 D,2 x2 | x6 | x6 | %12
 x6 | x6 |] %14

